img/coil_logo.svg

<svg width="82" height="34" viewBox="0 0 82 34" fill="none" xmlns="http://www.w3.org/2000/svg">
<path d="M66.0214 7.2219C68.1085 7.2219 69.8005 5.61676 69.8005 3.63671C69.8005 1.65666 68.1085 0.0515137 66.0214 0.0515137C63.9344 0.0515137 62.2424 1.65666 62.2424 3.63671C62.2424 5.61676 63.9344 7.2219 66.0214 7.2219Z" fill="black"/>
<path d="M63.1489 12.1658V32.5895C63.1489 33.694 64.6366 33.9828 66.1243 33.9828C67.6119 33.9828 69.0996 33.694 69.0996 32.5895V12.1658C69.0996 10.6875 67.6119 10.4836 66.1243 10.4836C64.6537 10.4836 63.1489 10.6875 63.1489 12.1658Z" fill="black"/>
<path d="M75.6492 1.68215V32.5896C75.6492 33.694 77.1368 33.9829 78.6245 33.9829C80.1122 33.9829 81.5998 33.694 81.5998 32.5896V1.68215C81.5998 0.203897 80.1122 0 78.6245 0C77.1539 0 75.6492 0.203897 75.6492 1.68215Z" fill="black"/>
<path d="M32.9153 21.851C32.9153 15.4283 38.0794 9.70215 45.5348 9.70215C52.956 9.70215 58.2398 15.3263 58.2398 21.817C58.2398 28.8005 52.3746 33.9999 45.6032 33.9999C38.0965 33.9829 32.9153 28.2568 32.9153 21.851ZM45.5177 29.0384C49.4848 29.0384 52.4601 25.793 52.4601 21.8001C52.4601 17.8071 49.4848 14.6467 45.5177 14.6467C41.5506 14.6467 38.6266 17.858 38.6266 21.851C38.6266 25.844 41.5506 29.0384 45.5177 29.0384Z" fill="black"/>
<path d="M29.4968 27.7255C29.4968 30.8349 22.1953 33.9783 17.1167 33.9783C10.8925 33.9783 5.06148 30.665 2.08615 25.3297C0.683985 22.8489 0 20.0283 0 17.2078C0 13.9284 0.940479 10.6491 2.78724 7.84548C4.2578 5.60261 7.04504 2.61212 11.9526 1.01492C13.1838 0.607128 15.4067 0.0294189 17.9033 0.0294189C24.9141 0.0294189 29.3258 4.90596 29.3258 9.17081C29.3258 12.0933 26.9319 16.2562 21.0667 16.2562C18.3821 16.2562 17.4758 15.1348 17.4758 13.8435C17.4758 12.1103 19.1003 10.0884 20.2801 10.0884C20.776 10.0884 21.0838 10.5811 22.0414 10.4452C22.9819 10.3092 23.4778 9.68056 23.4778 8.89895C23.4778 7.4207 21.7165 5.44969 17.9717 5.44969C16.7747 5.44969 15.3726 5.65359 13.7481 6.14634C10.4137 7.14883 8.584 9.52764 7.60933 11.0059C6.37815 12.875 5.76257 15.0668 5.76257 17.2248C5.76257 19.0768 6.22426 20.9289 7.13054 22.5601C9.09699 26.0603 12.9615 28.2522 17.1167 28.2522C22.8451 28.2522 24.4524 25.1937 25.6152 24.701C27.6672 23.8004 29.4968 26.2642 29.4968 27.7255Z" fill="black"/>
</svg>

<svg width="82" height="34" viewBox="0 0 82 34" fill="none" xmlns="http://www.w3.org/2000/svg"><path d="M66.021 7.222c2.088 0 3.78-1.605 3.78-3.585S68.109.052 66.02.052c-2.087 0-3.779 1.605-3.779 3.585s1.692 3.585 3.78 3.585zm-2.872 4.944V32.59c0 1.104 1.488 1.393 2.975 1.393 1.488 0 2.976-.289 2.976-1.393V12.166c0-1.479-1.488-1.682-2.976-1.682-1.47 0-2.975.204-2.975 1.682zM75.65 1.682V32.59c0 1.104 1.487 1.393 2.974 1.393 1.488 0 2.976-.289 2.976-1.393V1.682C81.6.204 80.112 0 78.625 0c-1.471 0-2.976.204-2.976 1.682zM32.915 21.851c0-6.423 5.164-12.149 12.62-12.149 7.421 0 12.705 5.624 12.705 12.115C58.24 28.8 52.375 34 45.603 34c-7.507-.017-12.688-5.743-12.688-12.149zm12.603 7.187c3.967 0 6.942-3.245 6.942-7.238 0-3.993-2.975-7.153-6.942-7.153s-6.891 3.211-6.891 7.204 2.924 7.187 6.89 7.187zm-16.021-1.312c0 3.109-7.302 6.252-12.38 6.252-6.225 0-12.056-3.313-15.03-8.648C.683 22.849 0 20.028 0 17.208c0-3.28.94-6.559 2.787-9.363 1.47-2.242 4.258-5.233 9.166-6.83 1.23-.408 3.454-.986 5.95-.986 7.011 0 11.423 4.877 11.423 9.142 0 2.922-2.394 7.085-8.26 7.085-2.684 0-3.59-1.121-3.59-2.412 0-1.734 1.624-3.756 2.804-3.756.496 0 .804.493 1.761.357.94-.136 1.437-.764 1.437-1.546 0-1.478-1.762-3.45-5.506-3.45-1.197 0-2.6.205-4.224.697-3.334 1.003-5.164 3.382-6.139 4.86a11.348 11.348 0 00-1.846 6.219c0 1.852.461 3.704 1.368 5.335 1.966 3.5 5.83 5.692 9.986 5.692 5.728 0 7.335-3.058 8.498-3.551 2.052-.9 3.882 1.563 3.882 3.024z" fill="#000"/></svg>
